X:1
T:Title
%%score { ( 1 4 ) | ( 2 3 ) }
L:1/8
Q:1/4=100
M:2/4
K:Ab
V:1 treble nm="Grand Piano"
V:4 treble 
V:2 bass 
V:3 bass 
V:1
 E2 FG | A>B c2 | cB d>c | B4 | E2 FG | A>B c2 | BA c>B | A4 | B2 G[Ge] | [Ae][A=d] [Ad]2 | %10
w: T.~Martin~Towne * *||||||||||
 [FA]2 [=DF][Dc] | cB B2 | [GB]2 [EG][Ge] | [Ge][F=d] [Fd]2 | [Af]2 [Ac][A=d] | e2 d2 | c2 B>A | %17
w: |||||||
 EA A2 | GA [Ed]>[Ec] | [EB]4 | [Ec]2 [EB]>[EA] | [DF][Fd] [Fd]2 | c2 B>c | [CA]4 |] %24
w: |||||||
V:2
 z4 | z4 | A,G, [E,B,E]>[E,A,E] | [E,G,E]4 | z4 | z4 | DC [E,G,E]>[E,G,D] | [A,C]4 | %8
 [E,G,E]2 [E,B,E][E,B,] | [B,,B,][B,,B,] [B,,B,]2 | [B,,B,]2 [B,,A,][B,,A,] | %11
 [E,A,E][E,G,E] [E,G,E]2 | [E,B,]2 [E,B,][E,B,] | [B,,B,][B,,B,] [B,,B,]2 | %14
 [B,,B,]2 [B,,B,][B,,B,] | [E,B,]4 | [A,E]2 [A,DE]>[A,CE] | [A,C][A,CE] [A,CE]2 | .[D,B,]2 z2 | %19
 [E,G,]4 | [A,,A,]2 [B,,G,]>[C,A,] | [D,A,][D,A,] [D,A,]2 | [E,A,E]2 [E,G,D]>[E,G,E] | [A,,A,]4 |] %24
V:3
 x4 | x4 | [E,E]2 z2 | x4 | x4 | x4 | E,2 z2 | x4 | x4 | x4 | x4 | x4 | x4 | x4 | x4 | x4 | x4 | %17
 x4 | E-[C,A,E] [B,,G,]>[A,,A,] | x4 | x4 | x4 | x4 | x4 |] %24
V:4
 x4 | x4 | x4 | x4 | x4 | x4 | x4 | x4 | x4 | x4 | x4 | x4 | x4 | x4 | x4 | G4 | x4 | x4 | x4 | %19
 x4 | x4 | x4 | x4 | x4 |] %24

